16x16/panel/octopi-indicator.svg

<svg height="16" width="16" xmlns="http://www.w3.org/2000/svg"><path d="m1 6.999v5.001c0 2 0 3 1.5 3s1.5-1 1.5-3c0 2 0 3 1.5 3s1.5-1 1.5-3c0 2 0 3 1.5 3s1.5-1 1.5-3c0 2 0 3 1.5 3s1.5-1 1.5-3v-5.002h-.002c.002-2.998-.998-6-5.998-6s-6 3.001-6 6zm3.5-2c.831.001 1.5.671 1.5 1.501 0 .831-.669 1.5-1.5 1.5s-1.5-.668-1.5-1.5c0-.83.669-1.5 1.5-1.5zm6 0c.831 0 1.5.67 1.5 1.5 0 .832-.669 1.5-1.5 1.5s-1.5-.667-1.5-1.499c0-.83.669-1.5 1.5-1.5z" fill="#bebebe"/></svg>

<svg height="16" width="16" xmlns="http://www.w3.org/2000/svg">
    <path d="M1 6.999V12c0 2 0 3 1.5 3S4 14 4 12c0 2 0 3 1.5 3S7 14 7 12c0 2 0 3 1.5 3s1.5-1 1.5-3c0 2 0 3 1.5 3s1.5-1 1.5-3V6.998h-.002C13 4 12 .998 7 .998s-6 3.001-6 6zm3.5-2C5.331 5 6 5.67 6 6.5 6 7.331 5.331 8 4.5 8S3 7.332 3 6.5C3 5.67 3.669 5 4.5 5zm6 0c.831 0 1.5.67 1.5 1.5 0 .832-.669 1.5-1.5 1.5S9 7.332 9 6.5c0-.83.669-1.5 1.5-1.5z" fill="#bebebe"/>
</svg>
